X:49
T:B049-  Burton Hall, or London's Loyalty
Q:1/4=120
L:1/4
M:3/2
K:Dm
D2(d/2c/2) (d/2A/2)GF|E3/2F/2 (G/2E/2) (F/2D/2) ^C2|\
D2(d/2c/2) (d/2A/2) GE|F(E/2D/2) (E/2D/2) (E/2^C/2)D2|\
D2(d/2c/2) (d/2A/2)GF|E3/2F/2 (G/2E/2) (F/2D/2)^C2|\
D2(d/2c/2) (d/2A/2)GE|\
F(E/2D/2) (E/2D/2) (E/2^C/2)D2|c2ec(e/2f/2)g|\
cggcg2|(d/2e/2) f/2g/2 ad(f/2g/2)a|daada2|\
(g/2f/2) e/2d/2 cg(A/2B/2) (c/2A/2)|\
(G/2F/2) (E/2D/2) CccF2|(F3/2E/4F/4)G3/2(F/4G/4)A3/2A/2|\
=Bcd(d/4c3/4)d2|]

